X: 09038
T: FATHER CHARLIE'S
C: Bob McQuillen 24 Nov 82
B: Bob's Note Book 9 #38
%R: reel
Z: 2018 John Chambers <jc:trillian.mit.edu>
N: In the NEFFA 2019 Bob McQuillen Slow Jam set.
M: C
L: 1/8
K: Am
AB \
| cAce dcAc | BGGE G2AG | EGDG EGAG | EGAc BGAB |
| cAce dcAc | BGGE G2AG | EGDG EGAc | BAAG A2 :|
|: cd \
| ecAc ecAG | Acdc BGcd | ecAc dcAG | AcAE G2ce |
| ecAc ecAE | GAGE DECD | EGAc dced | cAAG A2 :|
%%begintext align
%% You've been reading quite a lot about Augusta in these
%% little books; that's because the Augusta Experience is such a wonderful happening in a
%% person's life. Irish week is spectacular (perhaps no more so than the other weeks) with
%% great people and great music. The Coen Brothers have a lot to do with that; Jack is a
%% great Galway-style flute player, and his brother, Father Charlie Coen, is one of the very best
%% concertina players ever. We are all so lucky to have musicians of this caliber to
%% listen to and learn from. We're so glad you're at Augusta, Father Charlie!
%%endtext

%%sep 1 1 500

%%sep 1 1 500

